assets/home-tab/Asset/FasTag.svg

<svg width="25" height="26" viewBox="0 0 25 26" fill="none" xmlns="http://www.w3.org/2000/svg">
<path fill-rule="evenodd" clip-rule="evenodd" d="M13.9138 9.44291C15.084 9.44291 16.0848 10.2697 16.2855 11.4025L16.9835 15.3413C17.0334 15.6232 17.2825 15.829 17.5738 15.829C18.5045 15.829 19.259 16.5703 19.259 17.4847V21.2692C19.259 22.5755 18.1811 23.6344 16.8516 23.6344C16.6522 23.6344 16.4905 23.7933 16.4905 23.9892V24.8151C16.4905 25.4671 15.9525 25.9957 15.2889 25.9957H14.8836C14.2199 25.9957 13.6819 25.4671 13.6819 24.8151C13.6819 24.163 13.1439 23.6344 12.4803 23.6344H6.45757C5.79393 23.6344 5.25593 24.163 5.25593 24.8151C5.25593 25.4671 4.71794 25.9957 4.05429 25.9957H3.64897C2.98533 25.9957 2.44734 25.4671 2.44734 24.8151V23.6737C2.44734 23.652 2.42944 23.6344 2.40737 23.6344C1.07782 23.6344 0 22.5755 0 21.2692V17.4847C0 16.5703 0.754471 15.829 1.68516 15.829C1.79026 15.829 1.88014 15.7548 1.89817 15.653L2.6514 11.4025C2.85212 10.2697 3.85285 9.44291 5.02309 9.44291H13.9138ZM15.8703 20.7448C15.6991 20.8499 15.4929 20.8749 15.291 20.8749H14.9626C14.7607 20.8749 14.5545 20.8499 14.3833 20.7448C13.9864 20.501 13.7225 20.0678 13.7225 19.574C13.7225 18.812 14.3512 18.1943 15.1268 18.1943C15.9023 18.1943 16.5311 18.812 16.5311 19.574C16.5311 20.0678 16.2671 20.501 15.8703 20.7448ZM5.45635 19.574C5.45635 20.0678 5.19238 20.501 4.79553 20.7448C4.62434 20.8499 4.41815 20.8749 4.21625 20.8749H3.88786C3.68595 20.8749 3.47976 20.8499 3.30857 20.7448C2.91172 20.501 2.64775 20.0678 2.64775 19.574C2.64775 18.812 3.27648 18.1943 4.05205 18.1943C4.82763 18.1943 5.45635 18.812 5.45635 19.574ZM5.76575 11.5717C5.1811 11.5717 4.681 11.9844 4.58012 12.5502L4.29968 14.1231C4.17065 14.8469 4.73748 15.5098 5.48531 15.5098H13.4527C14.2006 15.5098 14.7674 14.8469 14.6384 14.1231L14.3579 12.5502C14.2571 11.9844 13.7569 11.5717 13.1723 11.5717H5.76575Z" fill="#0066B4"/>
<path d="M8.2407 1.74205C7.80492 1.42308 7.71483 0.817411 8.03947 0.38925C8.36411 -0.0389101 8.98056 -0.127429 9.41634 0.191539L22.0559 9.44296H23.2314V9.44696C24.1725 9.50779 24.9167 10.277 24.9167 11.217V24.226C24.9167 25.2058 24.1083 26 23.1111 26C22.114 26 21.3056 25.2058 21.3056 24.226V11.3048L8.2407 1.74205Z" fill="#0066B4"/>
</svg>

<svg xmlns="http://www.w3.org/2000/svg" width="25" height="26" fill="none" viewBox="0 0 25 26"><path fill="#0066b4" fill-rule="evenodd" d="M13.914 9.443c1.17 0 2.17.827 2.371 1.96l.698 3.938c.05.282.3.488.59.488.931 0 1.686.741 1.686 1.656v3.784c0 1.307-1.078 2.365-2.407 2.365-.2 0-.361.16-.361.355v.826a1.19 1.19 0 0 1-1.202 1.18h-.405a1.19 1.19 0 0 1-1.202-1.18 1.19 1.19 0 0 0-1.202-1.18H6.458c-.664 0-1.202.528-1.202 1.18s-.538 1.18-1.202 1.18H3.65a1.19 1.19 0 0 1-1.202-1.18v-1.141a.04.04 0 0 0-.04-.04C1.077 23.634 0 22.576 0 21.27v-3.784c0-.915.754-1.656 1.685-1.656a.215.215 0 0 0 .213-.176l.753-4.25c.201-1.133 1.202-1.96 2.372-1.96zm1.956 11.302c-.17.105-.377.13-.579.13h-.328c-.202 0-.408-.025-.58-.13a1.37 1.37 0 0 1-.66-1.171c0-.762.628-1.38 1.404-1.38s1.404.618 1.404 1.38c0 .494-.264.927-.66 1.17m-10.415-1.17c0 .494-.264.927-.66 1.17-.172.106-.378.13-.58.13h-.328c-.202 0-.408-.024-.58-.13a1.37 1.37 0 0 1-.66-1.17c0-.762.628-1.38 1.404-1.38s1.404.618 1.404 1.38m.31-8.002c-.585 0-1.085.412-1.186.978l-.28 1.573c-.13.724.437 1.387 1.185 1.387h7.968c.748 0 1.314-.663 1.185-1.387l-.28-1.573a1.2 1.2 0 0 0-1.186-.978z" clip-rule="evenodd"/><path fill="#0066b4" d="M8.24 1.742A.956.956 0 0 1 8.04.39.995.995 0 0 1 9.415.192l12.64 9.251h1.175v.004c.941.06 1.686.83 1.686 1.77v13.009c0 .98-.809 1.774-1.806 1.774s-1.805-.794-1.805-1.774V11.305z"/></svg>
